paymentMethods/googlePay.svg

<svg width="128" height="64" viewBox="0 0 128 64" fill="none" xmlns="http://www.w3.org/2000/svg">
<rect width="128" height="64" rx="6" fill="white"/>
<path d="M61.9301 34.6167V44.6167H58.8141V19.9647H67.0821C68.0711 19.9427 69.0544 20.1209 69.9728 20.4886C70.8911 20.8564 71.7256 21.4061 72.4261 22.1047C73.7857 23.4035 74.5832 25.1827 74.6482 27.0618C74.7133 28.941 74.0406 30.771 72.7741 32.1607L72.4261 32.5167C71.7192 33.2038 70.8827 33.7434 69.9652 34.1039C69.0477 34.4645 68.0676 34.6388 67.0821 34.6167H61.9301ZM61.9301 22.9887V31.5927H67.1581C67.7326 31.6109 68.3045 31.5065 68.8355 31.2865C69.3666 31.0665 69.8447 30.7359 70.2381 30.3167C71.0217 29.4871 71.4502 28.3842 71.4322 27.2432C71.4143 26.1022 70.9513 25.0133 70.1421 24.2087C69.3453 23.4297 68.2723 22.9983 67.1581 23.0087L61.9301 22.9887Z" fill="#3C4043"/>
<path d="M81.858 27.1927C84.162 27.1927 85.982 27.8207 87.318 29.0567C88.654 30.2927 89.318 32.0247 89.318 34.2047V44.6047H86.338V42.2567H86.214C84.914 44.1807 83.214 45.1447 81.062 45.1447C79.3789 45.1977 77.7387 44.6086 76.474 43.4967C75.8755 42.9911 75.3978 42.3579 75.076 41.6436C74.7541 40.9293 74.5963 40.152 74.614 39.3687C74.5888 38.5696 74.7528 37.7758 75.0928 37.0522C75.4327 36.3285 75.9389 35.6955 76.57 35.2047C77.866 34.1647 79.61 33.6527 81.77 33.6527C83.3566 33.5963 84.9311 33.9489 86.342 34.6767V33.9487C86.3409 33.4177 86.2261 32.893 86.0053 32.4101C85.7845 31.9271 85.4629 31.497 85.062 31.1487C84.2391 30.4056 83.1708 29.9926 82.062 29.9887C81.2391 29.9708 80.4258 30.168 79.7025 30.5609C78.9792 30.9537 78.371 31.5286 77.938 32.2287L75.194 30.4607C76.666 28.2927 78.894 27.1927 81.858 27.1927ZM77.814 39.4287C77.8122 39.8287 77.9038 40.2236 78.0816 40.582C78.2594 40.9403 78.5184 41.2522 78.838 41.4927C79.5244 42.0404 80.3801 42.3317 81.258 42.3167C81.912 42.3195 82.56 42.1922 83.1643 41.9422C83.7686 41.6923 84.3171 41.3246 84.778 40.8607C85.2666 40.423 85.6574 39.8872 85.9248 39.2882C86.1922 38.6893 86.3303 38.0406 86.33 37.3847C85.362 36.5847 84.006 36.1847 82.262 36.2247C81.1323 36.1888 80.0202 36.5123 79.086 37.1487C78.7016 37.3934 78.384 37.73 78.162 38.128C77.9399 38.526 77.8204 38.973 77.814 39.4287V39.4287Z" fill="#3C4043"/>
<path fill-rule="evenodd" clip-rule="evenodd" d="M106.43 27.7407L96.01 52.0007H92.798L96.67 43.5167L89.834 27.7407H93.222L98.162 39.8407H98.218L103.038 27.7407H106.43Z" fill="#3C4043"/>
<path fill-rule="evenodd" clip-rule="evenodd" d="M49.326 32.4607C49.3268 31.5 49.2492 30.5408 49.094 29.5927H35.946V35.0327H43.478C43.3256 35.9013 42.9989 36.73 42.5177 37.469C42.0365 38.208 41.4107 38.8419 40.678 39.3327V42.8607H45.17C47.814 40.4127 49.326 36.7767 49.326 32.4607Z" fill="#4285F4"/>
<path fill-rule="evenodd" clip-rule="evenodd" d="M35.946 46.2847C39.702 46.2847 42.878 45.0287 45.182 42.8647L40.69 39.3327C39.6079 40.0341 38.3789 40.477 37.0981 40.627C35.8173 40.777 34.5192 40.6301 33.3043 40.1976C32.0894 39.7652 30.9904 39.0589 30.0924 38.1334C29.1944 37.2079 28.5216 36.0881 28.126 34.8607H23.494V38.5127C24.6384 40.8405 26.4108 42.8018 28.6112 44.1752C30.8116 45.5486 33.3522 46.2793 35.946 46.2847Z" fill="#34A853"/>
<path fill-rule="evenodd" clip-rule="evenodd" d="M28.122 34.8607C27.5421 33.1006 27.5421 31.2008 28.122 29.4407V25.7967H23.494C22.5115 27.7671 22 29.9389 22 32.1407C22 34.3425 22.5115 36.5143 23.494 38.4847L28.122 34.8607Z" fill="#FBBC04"/>
<path fill-rule="evenodd" clip-rule="evenodd" d="M35.946 23.5967C36.9331 23.5787 37.914 23.7572 38.8314 24.1218C39.7489 24.4865 40.5846 25.03 41.29 25.7207L45.29 21.6727C42.7751 19.2819 39.4278 17.9648 35.958 18.0007C33.3605 18.0078 30.8169 18.7418 28.6148 20.1195C26.4128 21.4973 24.6404 23.4639 23.498 25.7967L28.126 29.4527C29.226 26.0927 32.306 23.5967 35.946 23.5967Z" fill="#EA4335"/>
</svg>

<svg xmlns="http://www.w3.org/2000/svg" width="128" height="64" fill="none"><rect width="128" height="64" fill="#fff" rx="6"/><path fill="#3C4043" d="M61.93 34.617v10h-3.116V19.965h8.268a7.338 7.338 0 0 1 5.344 2.14 7.2 7.2 0 0 1 .348 10.056l-.348.356a7.428 7.428 0 0 1-5.344 2.1H61.93Zm0-11.628v8.604h5.228a4.048 4.048 0 0 0 3.08-1.276 4.375 4.375 0 0 0-.096-6.108 4.212 4.212 0 0 0-2.984-1.2l-5.228-.02ZM81.858 27.193c2.304 0 4.124.628 5.46 1.864 1.336 1.236 2 2.968 2 5.148v10.4h-2.98v-2.348h-.124c-1.3 1.924-3 2.888-5.152 2.888a6.632 6.632 0 0 1-4.588-1.648 5.247 5.247 0 0 1-1.86-4.128 5.071 5.071 0 0 1 1.956-4.164c1.296-1.04 3.04-1.552 5.2-1.552a9.256 9.256 0 0 1 4.572 1.024v-.728a3.719 3.719 0 0 0-1.28-2.8 4.5 4.5 0 0 0-3-1.16 4.728 4.728 0 0 0-4.124 2.24l-2.744-1.768c1.472-2.168 3.7-3.268 6.664-3.268Zm-4.044 12.236a2.569 2.569 0 0 0 1.024 2.064 3.776 3.776 0 0 0 2.42.824 4.931 4.931 0 0 0 3.52-1.456 4.663 4.663 0 0 0 1.552-3.476c-.968-.8-2.324-1.2-4.068-1.16a5.34 5.34 0 0 0-3.176.924 2.748 2.748 0 0 0-1.272 2.28Z"/><path fill="#3C4043" fill-rule="evenodd" d="M106.43 27.74 96.01 52h-3.212l3.872-8.483-6.836-15.776h3.388l4.94 12.1h.056l4.82-12.1h3.392Z" clip-rule="evenodd"/><path fill="#4285F4" fill-rule="evenodd" d="M49.326 32.46c0-.96-.077-1.92-.232-2.867H35.946v5.44h7.532a6.534 6.534 0 0 1-2.8 4.3v3.528h4.492c2.644-2.448 4.156-6.084 4.156-10.4Z" clip-rule="evenodd"/><path fill="#34A853" fill-rule="evenodd" d="M35.946 46.285c3.756 0 6.932-1.256 9.236-3.42l-4.492-3.532a8.4 8.4 0 0 1-12.564-4.472h-4.632v3.652a13.908 13.908 0 0 0 12.452 7.772Z" clip-rule="evenodd"/><path fill="#FBBC04" fill-rule="evenodd" d="M28.122 34.86a8.66 8.66 0 0 1 0-5.42v-3.643h-4.628a14.217 14.217 0 0 0 0 12.688l4.628-3.624Z" clip-rule="evenodd"/><path fill="#EA4335" fill-rule="evenodd" d="M35.946 23.597a7.445 7.445 0 0 1 5.344 2.124l4-4.048A13.344 13.344 0 0 0 35.958 18a13.917 13.917 0 0 0-12.46 7.796l4.628 3.656c1.1-3.36 4.18-5.856 7.82-5.856Z" clip-rule="evenodd"/></svg>
